X: 0
T: Dusty Windowsills
C: John Harling
M: 6/8
L: 1/8
K: Ador
|: "Am"A2B cBA | eAB cBA | "G"GAG EGG | "Em"DGG EFG |
 "Am"A2B cBA | e2d efg | "Em"age "G"dBG | "Am"ABA A3 :|
|: "Am"a3 age | "G"dBd g3 | gba gfe | dBA G2G | 
"Em"EGG DGG | EFG ABc | "Em"Bed cBA | "G"BAG "Am"A3 :|
|: "Am"~A3 gAf | ~A3 gAf | "G"~G3 eGd | "Em"~G3 edB | 
"Am"~A3 gAf | ~A3 efg | "Em"age "G"dBG |1 "Am"BAG A3 :|2 "Am"BAG A2 |]